!! 00000] TT[WS
!!!OTL: Wugeng yuan
!!!ARE: Asia, China, Shanxi Taiyuan
!! Ethnic Group: Han
!! WI, 95
!!!SCT: J0114
!!!YEM: Copyright 1995, estate of Helmut Schaffrath.
**kern
*ICvox
*Ivox
*M2/4
*k[f#]
*G:
{8.b
16cc
8b
8e
=1
8.b
16cc
8b
8e
=2
8b
8cc
8b
16b
16a
=3
8.b
16a
16b
16a
[8g
=4
8g]}
{8g
8a
8b
=5
8b
8a
4g
=6
8a
8b
8e
8d
=7
2B}
=8
{8e
8g
4b
=9
8r
4b
8dd
=10
8b
8a
4g
=11
8.a
16b
8e
8d}
=12
{8e
16e
16g
4B
=13
8b
16b
16a
4b
=14
8.e
16f#
4e
=15
8b
16b
16b
4b}
=16
{8e
16g
16f#
4e
=17
16b
16dd
16b
16a
8b
8b
=18
8f#
8A
4e}
=19
{8.b
16a
8b
8a
=20
8b
8e
[4g
=21
4g]
4r}
=22
{8.g
16a
8b
16b
16dd
=23
8b
8a
8g
8a
=24
8dd
8b
8a
16a
16b
=25
8f#
8e
[4d
=26
4d]
4r}
==
!!!AGN: Xiaodiao. Qingge, Aisu
!!!ONB: ESAC (Essen Associative Code) Database: CHINA
!!!AMT: simple duple
!!!AIN: vox
!!!EED: Helmut Schaffrath
!!!EEV: 1.0
*-
!!!ONB: Tied note syntax fixed by Craig Sapp, 2004/05/03/
